X: 3
T: Bó Mhín Na Toitean
R: march
M: 4/4
L: 1/8
K: Gmaj
A2e2 e2dB|d2ef ge(ga)|{Ad}A2e2 e2dB|(fg)ed {Bd}B2AG|
{Ad}A2e2 e2dB|d2ef ge(ga)|{ga}gedB (e2f)d|efdB {Ad}A2BG:|
A2a2 a2ge|d2ef ge(ga)|A2a2 a2ge|dged {Bd}B2AG|
A2a2 a2ge|d2ef ge(ga)|{ga}gedB (e2f)d|efdB A2BG:|

